X:7689
T:Trip to the Jacks
O:england
R:Jig
S:Jackie Daly
M:6/8
L:1/8
K:A
E|:E2A A2B|cBc e2c|B2E GFE|B2E GFE|
E2A A2B|cBc e2c|B2E GFE|1 A3 A2F:|2 A3 A2e||
|:a2g fga|g2f e2c|d2c B2c|d2e f2g|
a2g fga|g2f e2c|d2B G2B|1 A3 A2e:|2 A3 A2||


